!!!OTL: The White Cockade 
!!!id: HA022
**kern
*clefF4
*k[f#c#]
*D:
*M2/2
{4dd
=1
4a
4f#
4f#
8e
8d
=2
4f#
4f#
4f#}
{4dd
=3
4a
4f#
4f#
8e
8d
=4
4f#
4e
4e}
{8d
8e
=5
4f#
4f#
8g
8f#
8e
8d
=6
4f#
4a
4.dd}
{8ee
=7
8ff#
8ee
8dd
8cc#
4dd
8cc#
8b
=8
4a
4f#
4f#}
{8f#
8g
=9
4a
4f#
4dd
4f#
=10
4a
4a
4.a}
{8b
=11
4a
4f#
4dd
8cc#
8dd
=12
4ee
4e
4e}
{8d
8e
=13
4f#
4f#
8g
8f#
8e
8d
=14
4f#
4a
4.dd}
{8ee
=15
8ff#
8ee
8dd
8cc#
4dd
8cc#
8b
=16
4a
4f#
4f#}
==
*-
!!!minrhy: 8
!!!meter: 2/2 
!!!cut: The White Cockade 
!!!key: HA022  08  D 2/2 
!!!bem: Vorschlge
!!!fog: a--b--a--c--d--e--f--g--
!! Haydn: Volksliedbearbeitungen, Bd1
